icons/redis.svg

<svg width="16" height="16" viewBox="0 0 16 16" fill="none" xmlns="http://www.w3.org/2000/svg">
<g clip-path="url(#clip0_814_45)">
<path d="M8 8.96154L14 10.3846L14 11.5069C14 11.6912 13.8902 11.8598 13.7164 11.9422L8.22941 14.545C8.08499 14.6135 7.91501 14.6135 7.77059 14.545L2.28357 11.9422C2.10978 11.8598 2 11.6913 2 11.5069L2 10.3846L8 8.96154Z" fill="#8D1614"/>
<path d="M7.77059 7.64728C7.91501 7.57878 8.08499 7.57878 8.22941 7.64728L14 10.3846L8.22941 13.1219C8.08499 13.1905 7.91501 13.1905 7.77059 13.1219L2 10.3846L7.77059 7.64728Z" fill="#DC382C"/>
<path d="M8 6.11538L14 7.53846L14 8.66076C14 8.8451 13.8902 9.01361 13.7164 9.09605L8.22941 11.6989C8.08499 11.7674 7.91501 11.7674 7.77059 11.6989L2.28357 9.09605C2.10978 9.01361 2 8.8451 2 8.66076L2 7.53846L8 6.11538Z" fill="#8D1614"/>
<path d="M7.77059 4.80113C7.91501 4.73262 8.08499 4.73262 8.22941 4.80113L14 7.53846L8.22941 10.2758C8.08499 10.3443 7.91501 10.3443 7.77059 10.2758L2 7.53846L7.77059 4.80113Z" fill="#DC382C"/>
<path d="M8 3.26923L14 4.69231L14 5.8146C14 5.99894 13.8902 6.16746 13.7164 6.2499L8.22941 8.85272C8.08499 8.92122 7.91501 8.92122 7.77059 8.85272L2.28357 6.2499C2.10978 6.16746 2 5.99894 2 5.81461L2 4.69231L8 3.26923Z" fill="#8D1614"/>
<path d="M7.77059 1.95498C7.91501 1.88647 8.08499 1.88647 8.22941 1.95498L14 4.69231L8.22941 7.42964C8.08499 7.49814 7.91501 7.49814 7.77059 7.42964L2 4.69231L7.77059 1.95498Z" fill="#DC382C"/>
</g>
<defs>
<clipPath id="clip0_814_45">
<rect width="16" height="16" fill="white"/>
</clipPath>
</defs>
</svg>

<svg xmlns="http://www.w3.org/2000/svg" width="16" height="16" fill="none"><g clip-path="url(#a)"><path fill="#8D1614" d="m8 8.962 6 1.423v1.122c0 .184-.11.353-.284.435L8.23 14.545a.538.538 0 0 1-.458 0l-5.487-2.603A.485.485 0 0 1 2 11.507v-1.122l6-1.423Z"/><path fill="#DC382C" d="M7.77 7.647a.538.538 0 0 1 .46 0L14 10.385l-5.77 2.737a.537.537 0 0 1-.46 0L2 10.385l5.77-2.738Z"/><path fill="#8D1614" d="m8 6.115 6 1.423v1.123c0 .184-.11.353-.284.435L8.23 11.7a.538.538 0 0 1-.458 0L2.284 9.096A.485.485 0 0 1 2 8.661V7.538l6-1.423Z"/><path fill="#DC382C" d="M7.77 4.801a.538.538 0 0 1 .46 0L14 7.538l-5.77 2.738a.538.538 0 0 1-.46 0L2 7.538l5.77-2.737Z"/><path fill="#8D1614" d="m8 3.27 6 1.422v1.123c0 .184-.11.352-.284.435L8.23 8.853a.538.538 0 0 1-.458 0L2.284 6.25A.485.485 0 0 1 2 5.815V4.692L8 3.27Z"/><path fill="#DC382C" d="M7.77 1.955a.538.538 0 0 1 .46 0L14 4.692 8.23 7.43a.538.538 0 0 1-.46 0L2 4.692l5.77-2.737Z"/></g><defs><clipPath id="a"><path fill="#fff" d="M0 0h16v16H0z"/></clipPath></defs></svg>
